rotate-left.svg

<svg fill="currentColor" viewBox="0 0 24 24"><path d="M13 4.07V1L8.45 5.55 13 10V6.09c2.84.48 5 2.94 5 5.91s-2.16 5.43-5 5.91v2.02c3.95-.49 7-3.85 7-7.93s-3.05-7.44-7-7.93M7.1 18.32c1.16.9 2.51 1.44 3.9 1.61V17.9c-.87-.15-1.71-.49-2.46-1.03zM6.09 13H4.07c.17 1.39.72 2.73 1.62 3.89l1.41-1.42c-.52-.75-.87-1.59-1.01-2.47m1.02-4.47L5.7 7.11C4.8 8.27 4.24 9.61 4.07 11h2.02c.14-.87.49-1.72 1.02-2.47"/></svg>

<svg  viewBox="0 0 24 24" fill="currentColor"><path  d="M13,4.07V1L8.45,5.55L13,10V6.09C15.84,6.57 18,9.03 18,12C18,14.97 15.84,17.43 13,17.91V19.93C16.95,19.44 20,16.08 20,12C20,7.92 16.95,4.56 13,4.07M7.1,18.32C8.26,19.22 9.61,19.76 11,19.93V17.9C10.13,17.75 9.29,17.41 8.54,16.87L7.1,18.32M6.09,13H4.07C4.24,14.39 4.79,15.73 5.69,16.89L7.1,15.47C6.58,14.72 6.23,13.88 6.09,13M7.11,8.53L5.7,7.11C4.8,8.27 4.24,9.61 4.07,11H6.09C6.23,10.13 6.58,9.28 7.11,8.53Z"/></svg>
